X:1
T:Requiem for a Dream
T:Requiem for a Dream
T:By Clint Mansell Modified version of Dustin Nägel
C:By Clint Mansell, Arr:
%%score { 1 | ( 2 3 ) }
L:1/8
Q:1/4=70
M:4/4
K:Bb
V:1 treble nm="Piano" snm="Pno."
V:2 bass 
V:3 bass 
V:1
"^With expression" !fermata!z8 |:!mf! z8 | z8 :| bagd bagd | bagd c'bab | bagd bagd | bagd c'bag || %7
 bagd bagd | bagd c'bab | bagd bagd |!<(! bagd c'ba!<)!b || [DB]G z B/G/ [DB]/G z z/ B/G/ | %12
 [EB]/G z z/ B/G/ [DB]/G/B/G/B/G/B/G/ | [DB]/A z z/ B/A/ [DB]/A z z/ B/A/ | %14
 [EB]/A z z/!<(! B/A/ [DB]/A/B/A/B/A/B/!<)!A/ || %15
 [Bb]!ff![Gg] z [Bb]/[Gg]/ [Bb]/[Gg]/[Gg]/ z z/ [Bb]/[Gg]/ | %16
 [Bb]/[Gg]/[Gg]/ z z/ [Bb]/[Gg]/ [Bb]/[Gg]/[Bb]/[Gg]/[Bb]/[Gg]/[Bb]/[Gg]/ | %17
 [Bb]/[Aa]/[Aa]/ z z/ [Bb]/[Aa]/ [Bb]/[Aa]/[Aa]/ z z/ [Bb]/[Aa]/ | %18
 [Bb]/[Aa]/[Aa]/ z z/ [Bb]/[Aa]/ [Bb]/[Aa]/[Bb]/[Aa]/ [Bb]/[Aa]/[Bb]/[Aa]/ || %19
 [Bdgb][Adga][GBdg][Bb]/[Bb]/ [Bdgb]/[Adga]/[Adga]/[Adga]/[GBdg][Bb]/[Bb]/ | %20
 [Begb]/[Aega]/[Aega]/[Aega]/[GBeg][Gg]/[Gg]/[Q:1/4=60] [Gdg]/[Ada]/[Q:1/4=50][Ada]/[Ada]/[Q:1/4=40]"_ral."[Ad^fa]/[Bfb]/[Q:1/4=30][Bfb]/[Q:1/4=14][Bfb]/ || %21
[Q:1/4=70] BAGD BAGD | BAGD cBAB | BAGD BAGD | BAGD[Q:1/4=50]"_rit." cB[Q:1/4=30]A[Q:1/4=20]B | %25
 G8 |] %26
V:2
!pp! !fermata!G,,8 |: G,8 | [E,,E,]4 [D,,D,]4 :| G,8 |!<(! [E,,B,,E,]4 [D,,A,,D,]4!<)! | G,8 | %6
!>(! [E,,B,,E,]4!>)! [D,,A,,D,]4 || G,2 B,2 B,2 B,2 | [E,,B,,E,]2 B,,2 [D,,A,,D,]2 A,,2 | %9
 [G,,B,,D,G,]2 [G,,D,]2 [G,,D,]2 [G,,D,]2 | [E,,B,,E,]2 [E,,B,,]2 [D,,A,,D,]2 ^F,2 || %11
!f! [G,,D,G,]2 [G,,D,]2 [G,,D,]2 [G,,D,]2 | [E,,B,,E,]2 [E,,B,,]2 [D,,A,,D,]2 [D,,A,,]2 | %13
 [G,,D,G,]2 [G,,D,]2 [G,,D,]2 [G,,D,]2 | %14
 [E,,B,,E,]2 [E,,B,,]2 [D,,A,,D,][D,,,D,,][D,,,D,,][D,,,D,,] || %15
 [G,,,G,,]2 [D,G,B,]2 [G,,,G,,]2 [D,G,B,]2 | [E,,,E,,]2 [E,G,B,E]2 [D,,,D,,]2 [D,^F,A,D]2 | %17
 [G,,,G,,]2 [D,G,B,]2 [G,,,G,,]2 [D,G,B,]2 | [E,,,E,,]2 [E,G,B,E]2 [D,,,D,,]2 [D,^F,A,D]2 || %19
 [G,,,G,,]/!fff![G,,,G,,]/ z [G,,D,G,]/[G,,D,G,]/ z [G,,,G,,]2 [G,,D,G,]/[G,,D,G,]/ z | %20
 [E,,,E,,]2 [E,,B,,E,]/[E,,B,,E,]/ z [D,,,D,,]2 [D,,A,,D,]/[D,,A,,D,]/ z || G,8 | %22
 [E,,E,]4 [D,,D,]4 |!mp! G,8 | [E,,E,]4 [D,,D,]4 |!pp! [G,,,G,,]8 |] %26
V:3
 G,,,8 |: G,,8 | x8 :| G,,8 | x8 | G,,8 | x8 || [G,,D,]8 | x8 | x8 | x8 || x8 | x8 | x8 | x8 || %15
 x8 | x8 | x8 | x8 || x8 | x8 || G,,8 | x8 | G,,8 | x8 | x8 |] %26

